!!!OTL: Zaldotemarsch vum J&auml;gerbataillon 1860 (1-27), S. 72
!!!id: K1076
**kern
*clefG2
*k[b-]
*F:
{16f
16f
16a
16a
=1
4cc
8.cc
16cc
8b-
8dd
=2
8cc
8b-
8a}
8r
=3
{16f
16f
16a
16a
=4
4cc
8.cc
16cc
8b-
8dd
=5
8cc
8b-
8a}
=6
{16f
16f
8f
8a
=7
8cc
8ff
8ff
16ff
16ff
8ee
16dd
16dd
=8
8cc
8a
8f}
=9
{8cc
8dd
8cc
=10
8.ee
16dd
8ee
8dd
8.cc
16b-
=11
4a}
8r
=12
{16f
16f
8f
8a
=13
8cc
8ff
8ff
16ff
16ff
8ee
16dd
16dd
=14
8cc
8a
8f}
=15
{8cc
8dd
8cc
=16
8.ee
16dd
8ee
8dd
8.cc
16b-
=17
4a}
4r
==
*-
!!!minrhy: 16
!!!meters: 3/4 ]  ZZ[6
!!!cut: Zaldotemarsch vum J&auml;gerbataillon 1860 (1-27), S. 72
!!!reg: Luxemburg
!!!trd: KINTZELE, Guillaume: An der Ucht, Bd. 1, Luxemburg 1926
!!!rhy1: XXXX  X__X_.XX_X_  X_X_X_0_
!!!rhy2: XXXX  X__X_.XX_X_  X_X_X_
!!!key: K1076  16  F 3/4 ]  ZZ[6
!!!mod: SECHSTONSKALA DUR ?]  AMBITUS[8
!!!kad: 331313
!!!akz: 55_55_55_73_55_73_
!!!fot: 'a__a__aw_b__aw_b__
!!!for: 'a__av_b__c__b__cv_
!!!fok: '^a_^a_^__^d_^__^d_
!! PHRAS[AUFTAKTIG]
!!!fkt: Trennung, Abschied
!!!bem: in der Quelle mit einer 2. Stimme versehen
!! KINTZELE
!! PR[36] 2K[2] 2G[7] 3K[9] 3G[2] 4A[4] 4Ü[0] 5A[0] 6K[0] 6G[4]
!! 7K[0] 7G[0] 8A[0] MEHR[0] SI[27] ABS[56] SR[9] SP[18]
!! ST[12] 2k[9] 2g[18] 3k[4] 3g[2] 4d[4] 4ü[0] 5d[2] 6k[0] 6g[0]
!! 7k[0] 7g[0] 8d[0] mehr[0] si[38] dm[-11] sr[27] sp[11]
!! 1F[63] 2F[29] 3F[8] 4F[0] LF[0] 2P[0] 3P[0] 4P[0] TRI[0] DF[3] AB[63]
!! TF[0] U3K[0] U3[0] U4[0] U4Ü[0] U5[0] U6K[0] U6[0] U7K[0] U7[0]
!! N1[5] N2K[0] N2[7] N3K[0] N3[14] N4[16] N4Ü[0] N5[25] N6K[0] N6[21]
!!!n7k: 0] N7[5] O1[7] O2K[0] O2[0] O3K[0] O3[0] HÖ[0
!!!RNB: symbol: &auml;      = a umlaut  (UTF-8: Å„)
